icons/src/svg/filters_inactive.svg

<svg width="32" height="32" viewBox="0 0 32 32" fill="none" xmlns="http://www.w3.org/2000/svg">
<path d="M29.5668 25.324C29.8286 25.1437 30.0001 24.8419 30.0001 24.5C30.0001 23.9477 29.5524 23.5 29.0001 23.5H27.7428L29.5668 25.324Z" fill="#0D0F13"/>
<path d="M23.27 19.0263C24.0258 18.5824 24.6003 17.8629 24.8554 17.0058H29.0003C29.5526 17.0058 30.0003 16.5581 30.0003 16.0058C30.0003 15.4536 29.5526 15.0058 29.0003 15.0058H24.8554C24.4251 13.5601 23.0858 12.5059 21.5003 12.5059C20.2129 12.5059 19.0879 13.201 18.48 14.2363L20.0181 15.7744C20.1294 15.0559 20.7507 14.5059 21.5003 14.5059C22.3288 14.5059 23.0003 15.1774 23.0003 16.0058C23.0003 16.7556 22.4503 17.3769 21.7319 17.4882L23.27 19.0263Z" fill="#0D0F13"/>
<path d="M10.7641 15.0059L12.7641 17.0059H3C2.44772 17.0059 2 16.5582 2 16.0059C2 15.4536 2.44772 15.0059 3 15.0059H10.7641Z" fill="#0D0F13"/>
<path d="M12.8285 8.5857C12.8363 8.56174 12.8439 8.53765 12.8512 8.51346H29.0009C29.5532 8.51346 30.0009 8.06575 30.0009 7.51346C30.0009 6.96118 29.5532 6.51346 29.0009 6.51346H12.8592C12.4332 5.06081 11.0906 4 9.50012 4C9.12114 4 8.75622 4.06024 8.41442 4.17166L12.8285 8.5857Z" fill="#0D0F13"/>
<path d="M2.44139 6.68359L4.27094 8.51314H3C2.44772 8.51314 2 8.06543 2 7.51314C2 7.16775 2.17511 6.86325 2.44139 6.68359Z" fill="#0D0F13"/>
<path fill-rule="evenodd" clip-rule="evenodd" d="M19.2575 23.5L21.2575 25.5H14.8552C14.4249 26.9457 13.0857 28.0001 11.5001 28.0001C9.91461 28.0001 8.57534 26.9459 8.14506 25.5001H3.00012C2.44784 25.5001 2.00012 25.0524 2.00012 24.5001C2.00012 23.9478 2.44784 23.5001 3.00012 23.5001H8.14506C8.57533 22.0544 9.91457 21 11.5001 21C13.0856 21 14.4249 22.0543 14.8552 23.5H19.2575ZM11.5001 23C10.6718 23 10.0001 23.6716 10.0001 24.5001C10.0001 25.3285 10.6717 26.0001 11.5001 26.0001C12.3285 26.0001 13.0001 25.3285 13.0001 24.5C13.0001 23.6716 12.3286 23 11.5001 23Z" fill="#0D0F13"/>
<path fill-rule="evenodd" clip-rule="evenodd" d="M2.29302 2.29289C2.68354 1.90237 3.31671 1.90237 3.70723 2.29289L29.7072 28.2929C30.0978 28.6834 30.0978 29.3166 29.7072 29.7071C29.3167 30.0976 28.6836 30.0976 28.293 29.7071L2.29302 3.70711C1.90249 3.31658 1.90249 2.68342 2.29302 2.29289Z" fill="#0D0F13"/>
</svg>

<?xml version="1.0" encoding="utf-8"?>
<!-- Generator: Adobe Illustrator 26.0.1, SVG Export Plug-In . SVG Version: 6.00 Build 0)  -->
<svg version="1.1" id="Layer_1" xmlns="http://www.w3.org/2000/svg" xmlns:xlink="http://www.w3.org/1999/xlink" x="0px" y="0px"
	 viewBox="0 0 32 32" style="enable-background:new 0 0 32 32;" xml:space="preserve">
<style type="text/css">
	.st0{fill:#0D0F13;}
</style>
<path class="st0" d="M29.6,25.3c0.3-0.2,0.4-0.5,0.4-0.8c0-0.6-0.4-1-1-1h-1.3L29.6,25.3z M23.3,19c0.8-0.4,1.3-1.2,1.6-2H29
	c0.6,0,1-0.4,1-1c0-0.6-0.4-1-1-1h-4.1c-0.4-1.4-1.8-2.5-3.4-2.5c-1.3,0-2.4,0.7-3,1.7l1.5,1.5c0.1-0.7,0.7-1.3,1.5-1.3
	c0.8,0,1.5,0.7,1.5,1.5c0,0.7-0.6,1.4-1.3,1.5L23.3,19z M10.8,15l2,2H3c-0.6,0-1-0.4-1-1c0-0.6,0.4-1,1-1H10.8z M12.8,8.6
	C12.8,8.6,12.8,8.5,12.8,8.6L29,8.5c0.6,0,1-0.4,1-1c0-0.6-0.4-1-1-1H12.9C12.4,5.1,11.1,4,9.5,4C9.1,4,8.8,4.1,8.4,4.2L12.8,8.6z
	 M2.4,6.7l1.8,1.8H3c-0.6,0-1-0.4-1-1C2,7.2,2.2,6.9,2.4,6.7z M19.3,23.5l2,2H18h-3.1c-0.4,1.4-1.8,2.5-3.4,2.5
	c-1.6,0-2.9-1.1-3.4-2.5H3c-0.6,0-1-0.4-1-1c0-0.6,0.4-1,1-1h5.1c0.4-1.4,1.8-2.5,3.4-2.5c1.6,0,2.9,1.1,3.4,2.5H18H19.3z M11.5,23
	c-0.8,0-1.5,0.7-1.5,1.5c0,0.8,0.7,1.5,1.5,1.5c0.8,0,1.5-0.7,1.5-1.5C13,23.7,12.3,23,11.5,23z M2.3,2.3c0.4-0.4,1-0.4,1.4,0l26,26
	c0.4,0.4,0.4,1,0,1.4c-0.4,0.4-1,0.4-1.4,0l-26-26C1.9,3.3,1.9,2.7,2.3,2.3z"/>
</svg>
